X:173
T: DREI WORTE NENN ICH EUCH INHALTSSCHWER
N: F0309
O: Europa, Mitteleuropa, Deutschland
R: Jugend - Lied, Moral, religioes
M: 4/4
L: 1/8
K: Eb
B,2 | E2E2E2DC | B,3B,B,2z
B, | C2DDE2G,G, | B,4G,2z
G, | E2EEE2DC | =B,2B,2C2z
C | _D2D2C2B,A, | A,2B,2A,2z
C | C2CCC2F,2 | B,3A,G,
E,F,G, | A,2B,2CDE2 | E4D4 | E6

